assets/img/footer/email.svg

<svg width="17" height="13" viewBox="0 0 17 13" fill="none" xmlns="http://www.w3.org/2000/svg">
<path d="M14.5937 0.875H2.40626C1.6308 0.875 1 1.5058 1 2.28126V10.7188C1 11.4942 1.6308 12.125 2.40626 12.125H14.5937C15.3692 12.125 16 11.4942 16 10.7188V2.28126C16 1.5058 15.3692 0.875 14.5937 0.875ZM14.5937 1.8125C14.6574 1.8125 14.718 1.82571 14.7734 1.84879L8.5 7.28599L2.22656 1.84879C2.28195 1.82574 2.34254 1.8125 2.40623 1.8125H14.5937ZM14.5937 11.1875H2.40626C2.14763 11.1875 1.9375 10.9774 1.9375 10.7187V2.83926L8.19283 8.26056C8.2812 8.33699 8.3906 8.375 8.5 8.375C8.6094 8.375 8.7188 8.33702 8.80717 8.26056L15.0625 2.83926V10.7188C15.0625 10.9774 14.8524 11.1875 14.5937 11.1875Z" fill="white" stroke="white" stroke-width="0.3"/>
</svg>

<svg width="17" height="13" fill="none" xmlns="http://www.w3.org/2000/svg"><path d="M14.594.875H2.406C1.631.875 1 1.505 1 2.281v8.438c0 .775.63 1.406 1.406 1.406h12.188c.775 0 1.406-.63 1.406-1.406V2.28c0-.775-.63-1.406-1.406-1.406zm0 .938c.063 0 .124.013.18.036L8.5 7.286 2.227 1.849a.467.467 0 01.18-.036h12.187zm0 9.374H2.406a.47.47 0 01-.469-.468v-7.88l6.256 5.422a.468.468 0 00.614 0l6.255-5.422v7.88c0 .258-.21.469-.468.469z" fill="#fff" stroke="#fff" stroke-width=".3"/></svg>
